X:5572
T:Road to Creignish
R:jig
C:Dougie MacDonald
D:Fiddle Tunes
B:Cape Breton Fiddler Dougie MacDonald:Fiddle Tunes, 1993
N:Bookings,Mechanicals etc.
N:..... Dougie MacDonald <dougie@cranfordpub.com>
N:More tunes and information <http://www.cranfordpub.com/dougie>
Q:333
O:England
L:1/8
M:6/8
K:A
B|A3 EAE|F3 DEF|ECE cec|dBB BcB|
A3 EAE|F3 DEF|ECE BeB|cAA A2:||
e|:aba aec|fdd def|ecc aec|[1dBB Bce|
aba aec|fdd def|({c}e3) BeB|cAA Ace:|
[2 bBB BcB|A3 EAE|F2 A d2 f|eac BeB|cAA A2|]


